public/frame-hollow.svg

<svg fill="none" height="569" viewBox="0 0 274 569" width="274" xmlns="http://www.w3.org/2000/svg"><path clip-rule="evenodd" d="m233.206 0h-192.412c-21.7789 0-39.4342 17.6553-39.4342 39.4342v31.3915c-.792214.28-1.3598 1.0356-1.3598 1.9237v16.9975c0 .8881.567586 1.6436 1.3598 1.9236v16.5495c-.792214.28-1.3598 1.036-1.3598 1.924v32.635c0 .888.567586 1.644 1.3598 1.924v12.47c-.792214.28-1.3598 1.036-1.3598 1.924v32.635c0 .888.567586 1.644 1.3598 1.924v335.307c0 21.779 17.6553 39.434 39.4342 39.434h192.412c21.779 0 39.434-17.655 39.434-39.434v-344.146c.792-.28 1.36-1.036 1.36-1.924v-56.431c0-.889-.568-1.644-1.36-1.924v-85.1038c0-21.7789-17.655-39.4342-39.434-39.4342zm-223.68256 39.4317c0-.5516.01428-1.0999.04249-1.6446.30307-5.8502 2.21377-11.2753 5.29887-15.8418 1.563-2.3136 3.4275-4.4068 5.5371-6.2233 5.476-4.7152 12.6036-7.56575 20.397-7.56575h19.7741c2.343.82448 4.0224 3.05725 4.0224 5.68205 0 8.3147 6.7403 15.0549 15.0549 15.0549h114.0287c8.315 0 15.055-6.7402 15.055-15.0549 0-2.6248 1.68-4.85757 4.023-5.68205h20.454c17.205 0 31.166 13.89335 31.275 31.07315v.1388.0635 489.5283c0 17.273-14.002 31.276-31.275 31.276h-192.4121c-17.273 0-31.27546-14.003-31.27546-31.276z" fill="#000" fill-rule="evenodd"/></svg>

<svg width="274" height="569" viewBox="0 0 274 569" fill="none" xmlns="http://www.w3.org/2000/svg">
<path fill-rule="evenodd" clip-rule="evenodd" d="M233.206 0H40.794C19.0151 0 1.3598 17.6553 1.3598 39.4342V70.8257C0.567586 71.1057 0 71.8613 0 72.7494V89.7469C0 90.635 0.567586 91.3905 1.3598 91.6705V108.22C0.567586 108.5 0 109.256 0 110.144V142.779C0 143.667 0.567586 144.423 1.3598 144.703V157.173C0.567586 157.453 0 158.209 0 159.097V191.732C0 192.62 0.567586 193.376 1.3598 193.656V528.963C1.3598 550.742 19.0151 568.397 40.794 568.397H233.206C254.985 568.397 272.64 550.742 272.64 528.963V184.817C273.432 184.537 274 183.781 274 182.893V126.462C274 125.573 273.432 124.818 272.64 124.538V39.4342C272.64 17.6553 254.985 0 233.206 0ZM9.52344 39.4317C9.52344 38.8801 9.53772 38.3318 9.56593 37.7871C9.869 31.9369 11.7797 26.5118 14.8648 21.9453C16.4278 19.6317 18.2923 17.5385 20.4019 15.722C25.8779 11.0068 33.0055 8.15625 40.7989 8.15625H60.573C62.916 8.98073 64.5954 11.2135 64.5954 13.8383C64.5954 22.153 71.3357 28.8932 79.6503 28.8932H193.679C201.994 28.8932 208.734 22.153 208.734 13.8383C208.734 11.2135 210.414 8.98073 212.757 8.15625H233.211C250.416 8.15625 264.377 22.0496 264.486 39.2294C264.486 39.2757 264.486 39.3219 264.486 39.3682L264.486 39.4317V528.96C264.486 546.233 250.484 560.236 233.211 560.236H40.7989C23.5259 560.236 9.52344 546.233 9.52344 528.96V39.4317Z" fill="black"/>
</svg>
